Gurmukhi/0A10.svg

<svg enable-background="new 0 0 336 592" viewBox="0 0 336 592" xmlns="http://www.w3.org/2000/svg"><path d="m213.421814 125.518967c-13.72081-4.769753-27.593948-4.165947-41.404831-4.182587-9.926804-.011955-10.487198-.48658-10.386017-10.514549.14119-13.991684-1.981155-12.133644 12.169937-12.176926 9.486649-.029022 19.031082-.805511 28.454102.60849 17.87297 2.681992 30.717575 12.854012 39.967895 27.931763 10.28183 16.759056 16.169434 35.342491 22.044922 53.917686 5.701905 18.026413 1.378113 14.284745 19.354035 14.754853 1.49881.039199 3.01358-.127564 4.496643.030029 3.390136.360245 7.781708-1.675217 9.972625 1.411026 3.337891 4.70198 5.450379 10.318695 6.094086 16.158096.378174 3.430786-2.468536 3.839752-5.150818 3.840836-8.332672.003357-16.676056.251388-24.993835-.101181-4.697937-.199128-5.914704 1.463272-5.903229 5.980362.133453 52.662216.088471 105.324905.090942 157.987442.000031.999939.008149 1.999878.003205 2.999786-.040833 8.245544-1.345612 9.06427-8.656586 5.411041-4.022018-2.009796-7.926391-4.305053-12.079361-5.98938-4.533127-1.83847-5.591141-5.150543-5.403274-9.5419 1.054641-24.651428.307571-49.316864.459533-73.975678.034836-5.653778-.623275-11.302063-.029205-16.969269.241989-2.308563-.129761-4.613128-1.067383-7.073669-4.430694 1.374054-7.658905 4.315247-11.142517 6.736755-10.540909 7.327118-20.167053 15.813721-30.077728 23.94397-4.690201 3.847626-6.461243 8.889618-8.006012 14.471649-4.274796 15.447144-10.817078 29.750946-23.228974 40.562531-6.384658 5.561401-13.326034 6.457306-19.260223 2.858764-5.418396-3.285736-8.040649-11.018524-6.330276-18.623382 3.316436-14.745941 11.287551-27.024933 21.189422-37.974548 4.873108-5.388764 7.479462-10.764252 7.457398-18.134339-.048859-16.332367.361053-32.645935-4.074066-48.588363-.212754-.764832-.497574-1.509614-.847748-2.560654-4.680573 1.821777-8.082291 5.067917-11.571991 8.001022-10.453461 8.786164-20.594437 17.924484-29.670349 28.182144-1.948555 2.202301-3.095986 4.571473-3.654747 7.469971-2.755753 14.295258-8.29171 27.353424-17.734009 38.593018-2.599556 3.094421-5.624108 5.694976-9.25193 7.509277-10.262482 5.132233-20.993615-1.018707-21.494568-12.480743-.468575-10.72107 4.836303-19.549317 10.099235-28.247345 4.233246-6.996247 9.439545-13.318299 15.091271-19.225312 1.984947-2.074615 2.901222-4.235016 2.860161-7.114715-.199242-13.973191-3.529511-27.312058-7.803635-40.494553-.962158-2.967575-2.935967-3.649261-5.72113-3.62355-7.831986.072311-15.668038-.113236-23.496674.062088-3.872257.086731-6.24963-1.029648-7.266457-5.096848-.881981-3.527817-2.536338-6.858185-3.776817-10.301941-1.377781-3.824936-.201237-6.010299 3.725094-6.050506 13.664013-.139862 27.330387-.034088 40.995762-.065979 2.570755-.005997 3.934631 1.443039 4.892776 3.559921 6.326325 13.97728 11.246491 28.441727 14.951981 43.321365.515404 2.069672.665558 4.244538 2.260238 6.221756 3.480912-1.804153 5.959122-4.755386 8.763817-7.222854 12.142762-10.682801 24.506363-21.076905 37.948197-30.112137 5.246719-3.526688 6.359146-3.204758 8.768951 2.653137 8.727966 21.216156 13.9422 43.308914 16.290146 66.101425.119171 1.156769.01442 2.355774 1.097458 3.255676 1.74411.519257 2.686874-.883026 3.754471-1.80899 12.8582-11.151855 26.37883-21.422333 40.871994-30.354019 3.171432-1.954483 4.58464-4.084686 4.517273-7.992645-.235474-13.660553-.041809-27.328629.003051-40.993805.010376-3.162278-.709243-6.686005 4.389435-7.25528-10.519882-17.653686-24.527694-28.184067-44.709961-28.801086-10.489654-.320679-20.99675-.046311-31.495697-.097382-6.556335-.031906-8.767395-2.149689-8.717071-8.684647.109756-14.257522-1.93451-13.68814 13.248672-13.656936 11.315491.023254 22.66275-.528076 33.783676 2.357879 16.19661 4.20311 27.758988 14.572464 37.164597 27.825531 1.97197 2.778656 3.87355 5.607285 6.226501 8.141892-6.0298-18.490112-11.228393-37.371567-27.392883-50.32988-3.437057-2.755325-7.36058-4.51271-11.6595-6.443603z"/></svg>

<svg version="1.1" id="Layer_1" xmlns="http://www.w3.org/2000/svg" xmlns:xlink="http://www.w3.org/1999/xlink" x="0px" y="0px"
	 width="100%" viewBox="0 0 336 592" enable-background="new 0 0 336 592" xml:space="preserve">
<path fill="#000000" opacity="1.000000" stroke="none" 
	d="
M213.421814,125.518967 
	C199.701004,120.749214 185.827866,121.353020 172.016983,121.336380 
	C162.090179,121.324425 161.529785,120.849800 161.630966,110.821831 
	C161.772156,96.830147 159.649811,98.688187 173.800903,98.644905 
	C183.287552,98.615883 192.831985,97.839394 202.255005,99.253395 
	C220.127975,101.935387 232.972580,112.107407 242.222900,127.185158 
	C252.504730,143.944214 258.392334,162.527649 264.267822,181.102844 
	C269.969727,199.129257 265.645935,195.387589 283.621857,195.857697 
	C285.120667,195.896896 286.635437,195.730133 288.118500,195.887726 
	C291.508636,196.247971 295.900208,194.212509 298.091125,197.298752 
	C301.429016,202.000732 303.541504,207.617447 304.185211,213.456848 
	C304.563385,216.887634 301.716675,217.296600 299.034393,217.297684 
	C290.701721,217.301041 282.358337,217.549072 274.040558,217.196503 
	C269.342621,216.997375 268.125854,218.659775 268.137329,223.176865 
	C268.270782,275.839081 268.225800,328.501770 268.228271,381.164307 
	C268.228302,382.164246 268.236420,383.164185 268.231476,384.164093 
	C268.190643,392.409637 266.885864,393.228363 259.574890,389.575134 
	C255.552872,387.565338 251.648499,385.270081 247.495529,383.585754 
	C242.962402,381.747284 241.904388,378.435211 242.092255,374.043854 
	C243.146896,349.392426 242.399826,324.726990 242.551788,300.068176 
	C242.586624,294.414398 241.928513,288.766113 242.522583,283.098907 
	C242.764572,280.790344 242.392822,278.485779 241.455200,276.025238 
	C237.024506,277.399292 233.796295,280.340485 230.312683,282.761993 
	C219.771774,290.089111 210.145630,298.575714 200.234955,306.705963 
	C195.544754,310.553589 193.773712,315.595581 192.228943,321.177612 
	C187.954147,336.624756 181.411865,350.928558 168.999969,361.740143 
	C162.615311,367.301544 155.673935,368.197449 149.739746,364.598907 
	C144.321350,361.313171 141.699097,353.580383 143.409470,345.975525 
	C146.725906,331.229584 154.697021,318.950592 164.598892,308.000977 
	C169.472000,302.612213 172.078354,297.236725 172.056290,289.866638 
	C172.007431,273.534271 172.417343,257.220703 167.982224,241.278275 
	C167.769470,240.513443 167.484650,239.768661 167.134476,238.717621 
	C162.453903,240.539398 159.052185,243.785538 155.562485,246.718643 
	C145.109024,255.504807 134.968048,264.643127 125.892136,274.900787 
	C123.943581,277.103088 122.796150,279.472260 122.237389,282.370758 
	C119.481636,296.666016 113.945679,309.724182 104.503380,320.963776 
	C101.903824,324.058197 98.879272,326.658752 95.251450,328.473053 
	C84.988968,333.605286 74.257835,327.454346 73.756882,315.992310 
	C73.288307,305.271240 78.593185,296.442993 83.856117,287.744965 
	C88.089363,280.748718 93.295662,274.426666 98.947388,268.519653 
	C100.932335,266.445038 101.848610,264.284637 101.807549,261.404938 
	C101.608307,247.431747 98.278038,234.092880 94.003914,220.910385 
	C93.041756,217.942810 91.067947,217.261124 88.282784,217.286835 
	C80.450798,217.359146 72.614746,217.173599 64.786110,217.348923 
	C60.913853,217.435654 58.536480,216.319275 57.519653,212.252075 
	C56.637672,208.724258 54.983315,205.393890 53.742836,201.950134 
	C52.365055,198.125198 53.541599,195.939835 57.467930,195.899628 
	C71.131943,195.759766 84.798317,195.865540 98.463692,195.833649 
	C101.034447,195.827652 102.398323,197.276688 103.356468,199.393570 
	C109.682793,213.370850 114.602959,227.835297 118.308449,242.714935 
	C118.823853,244.784607 118.974007,246.959473 120.568687,248.936691 
	C124.049599,247.132538 126.527809,244.181305 129.332504,241.713837 
	C141.475266,231.031036 153.838867,220.636932 167.280701,211.601700 
	C172.527420,208.075012 173.639847,208.396942 176.049652,214.254837 
	C184.777618,235.470993 189.991852,257.563751 192.339798,280.356262 
	C192.458969,281.513031 192.354218,282.712036 193.437256,283.611938 
	C195.181366,284.131195 196.124130,282.728912 197.191727,281.802948 
	C210.049927,270.651093 223.570557,260.380615 238.063721,251.448929 
	C241.235153,249.494446 242.648361,247.364243 242.580994,243.456284 
	C242.345520,229.795731 242.539185,216.127655 242.584045,202.462479 
	C242.594421,199.300201 241.874802,195.776474 246.973480,195.207199 
	C236.453598,177.553513 222.445786,167.023132 202.263519,166.406113 
	C191.773865,166.085434 181.266769,166.359802 170.767822,166.308731 
	C164.211487,166.276825 162.000427,164.159042 162.050751,157.624084 
	C162.160507,143.366562 160.116241,143.935944 175.299423,143.967148 
	C186.614914,143.990402 197.962173,143.439072 209.083099,146.325027 
	C225.279709,150.528137 236.842087,160.897491 246.247696,174.150558 
	C248.219666,176.929214 250.121246,179.757843 252.474197,182.292450 
	C246.444397,163.802338 241.245804,144.920883 225.081314,131.962570 
	C221.644257,129.207245 217.720734,127.449860 213.421814,125.518967 
z"/>
</svg>
